svg/pipe_leak.svg

<svg xmlns="http://www.w3.org/2000/svg" viewBox="0 0 24 24"><path d="M2 5v8h2v-2h6l2-2-2-2H4V5zm18 0v2h-8l2 2-2 2h8v2h2V5zm-8 8s-2 2.17-2 3.5a2 2 0 0 0 2 2 2 2 0 0 0 2-2c0-1.33-2-3.5-2-3.5"/></svg>

<?xml version="1.0" encoding="UTF-8"?><!DOCTYPE svg PUBLIC "-//W3C//DTD SVG 1.1//EN" "http://www.w3.org/Graphics/SVG/1.1/DTD/svg11.dtd"><svg xmlns="http://www.w3.org/2000/svg" xmlns:xlink="http://www.w3.org/1999/xlink" version="1.1" id="mdi-pipe-leak" width="24" height="24" viewBox="0 0 24 24"><path d="M2,5V13H4V11H10L12,9L10,7H4V5H2M20,5V7H12L14,9L12,11H20V13H22V5H20M12,13C12,13 10,15.17 10,16.5A2,2 0 0,0 12,18.5A2,2 0 0,0 14,16.5C14,15.17 12,13 12,13Z" /></svg>
